icons/curve-24.svg

<svg id="icons" xmlns="http://www.w3.org/2000/svg" viewBox="0 0 24 24"><defs><style>.cls-1{fill:none;}</style></defs><path d="M20,1V2.03882A19.69946,19.69946,0,0,0,8.62653,7H6V9.80664A19.5967,19.5967,0,0,0,2.0318,20H1v3H4V20H3.03564A18.63718,18.63718,0,0,1,7.11133,10H9V7.993A18.73253,18.73253,0,0,1,20,3.03717V4h3V1ZM3,22H2V21H3ZM8,9H7V8H8ZM22,3H21V2h1Z"/><rect class="cls-1" width="24" height="24"/></svg>

<svg xmlns="http://www.w3.org/2000/svg" viewBox="0 0 24 24"><path d="M20 1v1.039A19.7 19.7 0 0 0 8.627 7H6v2.807A19.597 19.597 0 0 0 2.032 20H1v3h3v-3h-.964A18.637 18.637 0 0 1 7.11 10H9V7.993a18.733 18.733 0 0 1 11-4.956V4h3V1zM3 22H2v-1h1zM8 9H7V8h1zm14-6h-1V2h1z"/><path fill="none" d="M0 0h24v24H0z"/></svg>
